projects/seb-pictograms/svg/light/43-Picto-Light_black.svg

<svg xmlns="http://www.w3.org/2000/svg" viewBox="0 0 170 170"><path d="M163.4 58.1a1.5 1.5 0 00-.9-1l-115.1-41a1.5 1.5 0 00-1.9.9L29.3 62.3a1.5 1.5 0 00.9 1.9l35.4 12.7V91a31.3 31.3 0 01-31.3 31.3H19.9V98.2a1.5 1.5 0 00-1.5-1.5H5.1v3h11.8V151H5.1v3h13.3a1.5 1.5 0 001.5-1.5v-27.3h14.5A34.3 34.3 0 0068.6 91V78l62.2 22.1h.5a1.5 1.5 0 001.2-.6l30.7-40.2a1.5 1.5 0 00.2-1.2zM47.8 19.4l72.7 25.9-15.1 42.5-72.8-25.9zm83 77.5l-22.6-8.1 15.1-42.5 36.2 12.9z"/></svg>

<svg id="PIKTO_LIGHT" xmlns="http://www.w3.org/2000/svg" viewBox="0 0 170 170"><title>light_black</title><path d="M163.4,58.1a1.5,1.5,0,0,0-.9-1L47.4,16.1a1.5,1.5,0,0,0-1.9.9L29.3,62.3a1.5,1.5,0,0,0,.9,1.9L65.6,76.9V91a31.3,31.3,0,0,1-31.3,31.3H19.9V98.2a1.5,1.5,0,0,0-1.5-1.5H5.1v3H16.9V151H5.1v3H18.4a1.5,1.5,0,0,0,1.5-1.5V125.2H34.4A34.3,34.3,0,0,0,68.6,91v-13l62.2,22.1h.5a1.5,1.5,0,0,0,1.2-.6l30.7-40.2A1.5,1.5,0,0,0,163.4,58.1ZM47.8,19.4l72.7,25.9L105.4,87.8,32.6,61.9Zm83,77.5-22.6-8.1,15.1-42.5,36.2,12.9Z"/></svg>
